static/img/docs/concepts/partitionModel.svg

<?xml version="1.0" encoding="UTF-8" standalone="no"?> <!-- Created with Vectornator for iOS (http://vectornator.io/) --><!DOCTYPE svg PUBLIC "-//W3C//DTD SVG 1.1//EN" "http://www.w3.org/Graphics/SVG/1.1/DTD/svg11.dtd">
<svg height="100%" style="fill-rule:evenodd;clip-rule:evenodd;stroke-linecap:round;stroke-linejoin:round;" xmlns:xlink="http://www.w3.org/1999/xlink" xmlns="http://www.w3.org/2000/svg" xml:space="preserve" width="100%" xmlns:vectornator="http://vectornator.io" version="1.1" viewBox="0 0 283.5 141.75">
<metadata>
<vectornator:setting key="DisplayWhiteBackground" value="0"/>
<vectornator:setting key="RulersVisible" value="1"/>
<vectornator:setting key="SnapToEdges" value="0"/>
<vectornator:setting key="Units" value="Millimeters"/>
<vectornator:setting key="DynamicGuides" value="1"/>
<vectornator:setting key="SnapToPoints" value="0"/>
<vectornator:setting key="CMYKEnabledKey" value="0"/>
<vectornator:setting key="SnapToGrid" value="0"/>
<vectornator:setting key="SnapToGuides" value="1"/>
<vectornator:setting key="GridSpacing" value="36"/>
</metadata>
<defs/>
<g id="layer1 copy" vectornator:layerName="layer1 copy">
<path d="M99.2862+14.8876L210.81+14.8876C212.323+14.8876+213.55+15.4618+213.55+16.1701L213.55+124.964C213.55+125.672+212.323+126.246+210.81+126.246L99.2862+126.246C97.7729+126.246+96.5461+125.672+96.5461+124.964L96.5461+16.1701C96.5461+15.4618+97.7729+14.8876+99.2862+14.8876Z" opacity="1" fill="#464353"/>
<text x="0" font-family="sans-serif" y="0" text-anchor="middle" vectornator:text="table&#x20;directory" fill="#ffffff" font-size="9" vectornator:width="92.4777" opacity="1" transform="matrix(1 0 0 1 109.469 19.164)">
<tspan x="46.2388" y="9" textLength="56.5269">
table directory</tspan>
</text>
<path d="M223.893+114.269L223.965+43.6984C223.966+42.9152+224.172+42.273+224.427+42.2604L228.209+42.1558C228.465+42.1488+228.672+42.7811+228.671+43.5683L228.599+114.139L223.893+114.269Z" opacity="1" fill="#ffffff"/>
<path d="M225.8+124.728L225.244+123.459L220.739+113.207L220.345+112.303C220.291+112.178+220.286+112.033+220.333+111.903C220.379+111.772+220.472+111.668+220.59+111.614C220.644+111.589+220.702+111.576+220.761+111.576L223.439+111.55C223.694+111.547+223.902+111.32+223.904+111.041L223.976+85.9108C223.977+85.6319+224.183+85.4032+224.438+85.3987L228.22+85.3615C228.476+85.359+228.683+85.5842+228.682+85.8645L228.61+110.995C228.611+111.272+228.815+111.495+229.069+111.494L231.806+111.467C231.865+111.466+231.923+111.478+231.978+111.502C232.095+111.554+232.188+111.657+232.233+111.786C232.278+111.916+232.273+112.061+232.218+112.187L231.812+113.098L227.201+123.439L226.631+124.722C226.552+124.895+226.39+125.005+226.214+125.007C226.038+125.008+225.878+124.9+225.8+124.728Z" opacity="1" fill="#ffffff"/>
<path d="M104.297+99.2531L207.941+99.2531C209.347+99.2531+210.487+99.3654+210.487+99.5038L210.487+120.772C210.487+120.911+209.347+121.023+207.941+121.023L104.297+121.023C102.89+121.023+101.75+120.911+101.75+120.772L101.75+99.5038C101.75+99.3654+102.89+99.2531+104.297+99.2531Z" opacity="1" fill="#585567"/>
<path d="M106.207+101.253L131.951+101.253L131.951+101.253L131.951+118.828L131.951+118.828L106.207+118.828L106.207+118.828L106.207+101.253L106.207+101.253Z" opacity="1" fill="#d14671"/>
<text x="0" font-family="sans-serif" y="0" text-anchor="middle" vectornator:text="column&#x20;files" fill="#ffffff" font-size="6" vectornator:width="26.6007" opacity="1" transform="matrix(1 0 0 1 106.207 33.4638)">
<tspan x="14.1339" y="6" textLength="21.0088">
column </tspan>
<tspan x="13.3004" y="13" textLength="10.6699">
files</tspan>
</text>
<path d="M143.474+101.253L169.218+101.253L169.218+101.253L169.218+118.828L169.218+118.828L143.474+118.828L143.474+118.828L143.474+101.253L143.474+101.253Z" opacity="1" fill="#d14671"/>
<path d="M180.986+101.253L206.73+101.253L206.73+101.253L206.73+118.828L206.73+118.828L180.986+118.828L180.986+118.828L180.986+101.253L180.986+101.253Z" opacity="1" fill="#d14671"/>
<text x="0" font-family="sans-serif" y="0" text-anchor="middle" vectornator:text="Time" fill="#ffffff" font-size="6" vectornator:width="32.6814" opacity="1" transform="matrix(1 0 0 1 209.941 31.8563)">
<tspan x="16.3407" y="6" textLength="13.1133">
Time</tspan>
</text>
<text x="0" font-family="sans-serif" y="0" text-anchor="middle" vectornator:text="column&#x20;files" fill="#ffffff" font-size="6" vectornator:width="26.6007" opacity="1" transform="matrix(1 0 0 1 143.046 33.4638)">
<tspan x="14.1339" y="6" textLength="21.0088">
column </tspan>
<tspan x="13.3004" y="13" textLength="10.6699">
files</tspan>
</text>
<text x="0" font-family="sans-serif" y="0" text-anchor="middle" vectornator:text="column&#x20;files" fill="#ffffff" font-size="6" vectornator:width="26.6007" opacity="1" transform="matrix(1 0 0 1 180.558 33.4638)">
<tspan x="14.1339" y="6" textLength="21.0088">
column </tspan>
<tspan x="13.3004" y="13" textLength="10.6699">
files</tspan>
</text>
<path d="M104.297+51.8912L207.941+51.8912C209.347+51.8912+210.487+52.0035+210.487+52.1419L210.487+73.4102C210.487+73.5487+209.347+73.6609+207.941+73.6609L104.297+73.6609C102.89+73.6609+101.75+73.5487+101.75+73.4102L101.75+52.1419C101.75+52.0035+102.89+51.8912+104.297+51.8912Z" opacity="1" fill="#585567"/>
<path d="M12.0178+126.828L24.8897+126.828L24.8897+126.828L24.8897+135.616L24.8897+135.616L12.0178+135.616L12.0178+135.616L12.0178+126.828L12.0178+126.828Z" opacity="1" fill="#d14671"/>
<text x="0" font-family="sans-serif" y="0" text-anchor="middle" vectornator:text="Data&#x20;file" fill="#ffffff" font-size="6" vectornator:width="35.7907" opacity="1" transform="matrix(1 0 0 1 21.8376 127.316)">
<tspan x="17.8953" y="6" textLength="22.0107">
Data file</tspan>
</text>
<path d="M104.524+75.3283L208.168+75.3283C209.575+75.3283+210.715+75.4405+210.715+75.579L210.715+96.8473C210.715+96.9858+209.575+97.098+208.168+97.098L104.524+97.098C103.118+97.098+101.978+96.9858+101.978+96.8473L101.978+75.579C101.978+75.4405+103.118+75.3283+104.524+75.3283Z" opacity="1" fill="#585567"/>
<path d="M106.207+54.1701L131.951+54.1701L131.951+54.1701L131.951+71.745L131.951+71.745L106.207+71.745L106.207+71.745L106.207+54.1701L106.207+54.1701Z" opacity="1" fill="#d14671"/>
<path d="M143.474+54.1701L169.218+54.1701L169.218+54.1701L169.218+71.745L169.218+71.745L143.474+71.745L143.474+71.745L143.474+54.1701L143.474+54.1701Z" opacity="1" fill="#d14671"/>
<path d="M180.986+54.1701L206.73+54.1701L206.73+54.1701L206.73+71.745L206.73+71.745L180.986+71.745L180.986+71.745L180.986+54.1701L180.986+54.1701Z" opacity="1" fill="#d14671"/>
<path d="M143.474+77.4256L169.218+77.4256L169.218+77.4256L169.218+95.0006L169.218+95.0006L143.474+95.0006L143.474+95.0006L143.474+77.4256L143.474+77.4256Z" opacity="1" fill="#d14671"/>
<path d="M180.986+77.4256L206.73+77.4256L206.73+77.4256L206.73+95.0006L206.73+95.0006L180.986+95.0006L180.986+95.0006L180.986+77.4256L180.986+77.4256Z" opacity="1" fill="#d14671"/>
<path d="M106.207+77.4256L131.951+77.4256L131.951+77.4256L131.951+95.0006L131.951+95.0006L106.207+95.0006L106.207+95.0006L106.207+77.4256L106.207+77.4256Z" opacity="1" fill="#d14671"/>
<path d="M102.338+63.1192L101.703+63.3059L96.5777+64.8172L96.1254+64.9496C96.0628+64.9677+95.9904+64.9692+95.9252+64.9537C95.8601+64.9381+95.8079+64.9069+95.7809+64.8674C95.7686+64.8491+95.7621+64.8295+95.7619+64.8098L95.7487+63.9113C95.7475+63.8258+95.634+63.7561+95.4945+63.7553L82.9294+63.7311C82.7899+63.7309+82.6756+63.6617+82.6733+63.5762L82.6547+62.3075C82.6535+62.2216+82.7661+62.1522+82.9062+62.1525L95.4714+62.1766C95.6101+62.1762+95.7213+62.1077+95.721+62.0226L95.7076+61.1041C95.7072+61.0844+95.7131+61.0649+95.7249+61.0466C95.7508+61.0071+95.8023+60.9762+95.8671+60.9609C95.932+60.9457+96.0045+60.9476+96.0677+60.9662L96.5232+61.1023L101.694+62.6494L102.335+62.8406C102.421+62.8671+102.477+62.9213+102.477+62.9804C102.478+63.0394+102.424+63.0932+102.338+63.1192Z" opacity="1" fill="#ffffff"/>
<path d="M102.427+87.0407L101.792+87.2275L96.6664+88.7387L96.2141+88.8711C96.1515+88.8893+96.0791+88.8907+96.014+88.8752C95.9488+88.8597+95.8966+88.8285+95.8696+88.7889C95.8573+88.7706+95.8509+88.7511+95.8507+88.7314L95.8375+87.8328C95.8362+87.7473+95.7227+87.6777+95.5832+87.6768L83.0181+87.6527C82.8787+87.6524+82.7643+87.5832+82.7621+87.4978L82.7435+86.229C82.7422+86.1431+82.8548+86.0737+82.9949+86.074L95.5601+86.0981C95.6988+86.0978+95.81+86.0292+95.8098+85.9442L95.7963+85.0256C95.7959+85.0059+95.8018+84.9864+95.8136+84.9681C95.8396+84.9287+95.891+84.8977+95.9559+84.8825C96.0207+84.8673+96.0933+84.8691+96.1564+84.8877L96.6119+85.0239L101.782+86.5709L102.424+86.7621C102.51+86.7886+102.565+86.8428+102.566+86.9019C102.567+86.961+102.513+87.0147+102.427+87.0407Z" opacity="1" fill="#ffffff"/>
<path d="M102.427+110.202L101.792+110.389L96.6664+111.9L96.2141+112.033C96.1515+112.051+96.0791+112.052+96.014+112.037C95.9488+112.021+95.8966+111.99+95.8696+111.95C95.8573+111.932+95.8509+111.913+95.8507+111.893L95.8375+110.994C95.8362+110.909+95.7227+110.839+95.5832+110.838L83.0181+110.814C82.8787+110.814+82.7643+110.745+82.7621+110.659L82.7435+109.391C82.7422+109.305+82.8548+109.235+82.9949+109.236L95.5601+109.26C95.6988+109.259+95.81+109.191+95.8098+109.106L95.7963+108.187C95.7959+108.167+95.8018+108.148+95.8136+108.13C95.8396+108.09+95.891+108.059+95.9559+108.044C96.0207+108.029+96.0933+108.031+96.1564+108.049L96.6119+108.185L101.782+109.732L102.424+109.924C102.51+109.95+102.565+110.004+102.566+110.063C102.567+110.122+102.513+110.176+102.427+110.202Z" opacity="1" fill="#ffffff"/>
<text x="0" font-family="sans-serif" y="0" text-anchor="middle" vectornator:text="Time&#x20;partition" fill="#ffffff" font-size="6" vectornator:width="78.9712" opacity="1" transform="matrix(1 0 0 1 13.5948 59.3615)">
<tspan x="39.4856" y="6" textLength="36.3457">
Time partition</tspan>
</text>
<text x="0" font-family="sans-serif" y="0" text-anchor="middle" vectornator:text="Time&#x20;partition" fill="#ffffff" font-size="6" vectornator:width="78.9712" opacity="1" transform="matrix(1 0 0 1 13.5948 82.3615)">
<tspan x="39.4856" y="6" textLength="36.126">
Time partition</tspan>
</text>
<text x="0" font-family="sans-serif" y="0" text-anchor="middle" vectornator:text="Time&#x20;partition" fill="#ffffff" font-size="6" vectornator:width="78.9712" opacity="1" transform="matrix(1 0 0 1 13.5948 106.424)">
<tspan x="39.4856" y="6" textLength="36.126">
Time partition</tspan>
</text>
</g>
</svg>

<svg height="100%" xmlns="http://www.w3.org/2000/svg" xml:space="preserve" width="100%" xmlns:vectornator="http://vectornator.io" version="1.1" viewBox="0 0 283.5 141.75" fill-rule="evenodd" clip-rule="evenodd" stroke-linecap="round" stroke-linejoin="round"><g id="layer1 copy" vectornator:layerName="layer1 copy"><path d="M99.286 14.888H210.81c1.513 0 2.74.574 2.74 1.282v108.794c0 .708-1.227 1.282-2.74 1.282H99.286c-1.513 0-2.74-.574-2.74-1.282V16.17c0-.708 1.227-1.282 2.74-1.282z" opacity="1" fill="#464353"/><text x="0" font-family="sans-serif" y="0" text-anchor="middle" vectornator:text="table directory" fill="#fff" font-size="9" vectornator:width="92.478" opacity="1" transform="translate(109.469 19.164)"><tspan x="46.239" y="9" textLength="56.527">table directory</tspan></text><path d="M223.893 114.269l.072-70.57c.001-.784.207-1.426.462-1.439l3.782-.104c.256-.007.463.625.462 1.412l-.072 70.571-4.706.13z" opacity="1" fill="#fff"/><path d="M225.8 124.728l-.556-1.269-4.505-10.252-.394-.904a.547.547 0 01-.012-.4.494.494 0 01.257-.289.406.406 0 01.171-.038l2.678-.026c.255-.003.463-.23.465-.509l.072-25.13c.001-.28.207-.508.462-.512l3.782-.037c.256-.003.463.222.462.503l-.072 25.13c.001.277.205.5.459.499l2.737-.027a.41.41 0 01.172.035c.117.052.21.155.255.284.045.13.04.275-.015.401l-.406.911-4.611 10.341-.57 1.283a.47.47 0 01-.417.285.456.456 0 01-.414-.279z" opacity="1" fill="#fff"/><path d="M104.297 99.253h103.644c1.406 0 2.546.112 2.546.25v21.269c0 .139-1.14.251-2.546.251H104.297c-1.407 0-2.547-.112-2.547-.251V99.504c0-.139 1.14-.25 2.547-.25z" opacity="1" fill="#585567"/><path d="M106.207 101.253h25.744v17.575h-25.744v-17.575z" opacity="1" fill="#d14671"/><text x="0" font-family="sans-serif" y="0" text-anchor="middle" vectornator:text="column files" fill="#fff" font-size="6" vectornator:width="26.601" opacity="1" transform="translate(106.207 33.464)"><tspan x="14.134" y="6" textLength="21.009">column </tspan> <tspan x="13.3" y="13" textLength="10.67"> files</tspan></text><path d="M143.474 101.253h25.744v17.575h-25.744v-17.575zm37.512 0h25.744v17.575h-25.744v-17.575z" opacity="1" fill="#d14671"/><text x="0" font-family="sans-serif" y="0" text-anchor="middle" vectornator:text="Time" fill="#fff" font-size="6" vectornator:width="32.681" opacity="1" transform="translate(209.941 31.856)"><tspan x="16.341" y="6" textLength="13.113">Time</tspan></text><text x="0" font-family="sans-serif" y="0" text-anchor="middle" vectornator:text="column files" fill="#fff" font-size="6" vectornator:width="26.601" opacity="1" transform="translate(143.046 33.464)"><tspan x="14.134" y="6" textLength="21.009">column </tspan> <tspan x="13.3" y="13" textLength="10.67"> files</tspan></text><text x="0" font-family="sans-serif" y="0" text-anchor="middle" vectornator:text="column files" fill="#fff" font-size="6" vectornator:width="26.601" opacity="1" transform="translate(180.558 33.464)"><tspan x="14.134" y="6" textLength="21.009">column </tspan> <tspan x="13.3" y="13" textLength="10.67"> files</tspan></text><path d="M104.297 51.891h103.644c1.406 0 2.546.113 2.546.25v21.27c0 .138-1.14.25-2.546.25H104.297c-1.407 0-2.547-.112-2.547-.25V52.14c0-.137 1.14-.25 2.547-.25z" opacity="1" fill="#585567"/><path d="M12.018 126.828H24.89v8.788H12.018v-8.788z" opacity="1" fill="#d14671"/><text x="0" font-family="sans-serif" y="0" text-anchor="middle" vectornator:text="Data file" fill="#fff" font-size="6" vectornator:width="35.791" opacity="1" transform="translate(21.838 127.316)"><tspan x="17.895" y="6" textLength="22.011">Data file</tspan></text><path d="M104.524 75.328h103.644c1.407 0 2.547.112 2.547.251v21.268c0 .139-1.14.251-2.547.251H104.524c-1.406 0-2.546-.112-2.546-.25v-21.27c0-.138 1.14-.25 2.546-.25z" opacity="1" fill="#585567"/><path d="M106.207 54.17h25.744v17.575h-25.744V54.17zm37.267 0h25.744v17.575h-25.744V54.17zm37.512 0h25.744v17.575h-25.744V54.17zm-37.512 23.256h25.744V95h-25.744V77.426zm37.512 0h25.744V95h-25.744V77.426zm-74.779 0h25.744V95h-25.744V77.426z" opacity="1" fill="#d14671"/><path d="M102.338 63.12l-.635.186-5.125 1.511-.453.133a.404.404 0 01-.2.004.24.24 0 01-.144-.087.105.105 0 01-.02-.057l-.012-.899c-.001-.085-.115-.155-.254-.156l-12.566-.024c-.14 0-.253-.07-.256-.155l-.018-1.269c-.002-.085.111-.155.251-.154l12.565.024c.14 0 .25-.07.25-.154l-.013-.919c0-.02.005-.04.017-.057a.231.231 0 01.142-.086.403.403 0 01.2.005l.456.136 5.171 1.547.641.192c.086.026.142.08.142.14.001.058-.053.112-.139.138zm.089 23.92l-.635.188-5.126 1.51-.452.133a.402.402 0 01-.2.004.24.24 0 01-.144-.086.104.104 0 01-.02-.058l-.012-.898c-.002-.086-.115-.155-.255-.156l-12.565-.024c-.14 0-.254-.07-.256-.155l-.019-1.269c0-.086.112-.155.252-.155l12.565.024c.139 0 .25-.069.25-.154l-.014-.918c0-.02.006-.04.018-.058a.231.231 0 01.142-.086.403.403 0 01.2.006l.456.136 5.17 1.547.642.191c.086.027.141.08.142.14.001.059-.053.113-.139.139zm0 23.162l-.635.187-5.126 1.511-.452.133a.41.41 0 01-.2.004.241.241 0 01-.144-.087.101.101 0 01-.02-.057l-.012-.899c-.002-.085-.115-.155-.255-.156l-12.565-.024c-.14 0-.254-.069-.256-.155l-.019-1.268c0-.086.112-.156.252-.155l12.565.024c.139-.001.25-.069.25-.154l-.014-.919c0-.02.006-.039.018-.057a.228.228 0 01.142-.086.412.412 0 01.2.005l.456.136 5.17 1.547.642.192c.086.026.141.08.142.139.001.059-.053.113-.139.139z" opacity="1" fill="#fff"/><text x="0" font-family="sans-serif" y="0" text-anchor="middle" vectornator:text="Time partition" fill="#fff" font-size="6" vectornator:width="78.971" opacity="1" transform="translate(13.595 59.361)"><tspan x="39.486" y="6" textLength="36.346">Time partition</tspan></text><text x="0" font-family="sans-serif" y="0" text-anchor="middle" vectornator:text="Time partition" fill="#fff" font-size="6" vectornator:width="78.971" opacity="1" transform="translate(13.595 82.362)"><tspan x="39.486" y="6" textLength="36.126">Time partition</tspan></text><text x="0" font-family="sans-serif" y="0" text-anchor="middle" vectornator:text="Time partition" fill="#fff" font-size="6" vectornator:width="78.971" opacity="1" transform="translate(13.595 106.424)"><tspan x="39.486" y="6" textLength="36.126">Time partition</tspan></text></g></svg>
